packages/katcn/src/icons/svg/layout4-solid.svg

<svg width="24" height="25" viewBox="0 0 24 25" fill="none" xmlns="http://www.w3.org/2000/svg">
<path d="M6.3 2.40002H7.8V14.7H2V6.70002C2 4.30002 3.9 2.40002 6.3 2.40002Z" fill="black"/>
<path d="M2 16.7H7.7V22.4H6.3C3.9 22.4 2 20.5 2 18.1V16.7Z" fill="black"/>
<path d="M14.2 2.40002H9.7V22.4H14.2V2.40002Z" fill="black"/>
<path d="M22 6.70002V8.20002H16.3V2.40002H17.8C20.1 2.40002 22 4.30002 22 6.70002Z" fill="black"/>
<path d="M16.3 10.1H22V18.1C22 20.4 20.1 22.4 17.7 22.4H16.2V10.1H16.3Z" fill="black"/>
</svg>

<svg xmlns="http://www.w3.org/2000/svg" fill="none" viewBox="0 0 24 25"><path fill="#000" d="M6.3 2.4h1.5v12.3H2v-8c0-2.4 1.9-4.3 4.3-4.3M2 16.7h5.7v5.7H6.3c-2.4 0-4.3-1.9-4.3-4.3zM14.2 2.4H9.7v20h4.5zM22 6.7v1.5h-5.7V2.4h1.5c2.3 0 4.2 1.9 4.2 4.3m-5.7 3.4H22v8c0 2.3-1.9 4.3-4.3 4.3h-1.5V10.1z"/></svg>
